icons/evolvere-blue-folders-flat-vivid-dark-fallback/apps/64/mpv.svg

<?xml version="1.0" encoding="UTF-8" standalone="no"?>
<!-- Created with Inkscape (http://www.inkscape.org/) -->

<svg
   xmlns:dc="http://purl.org/dc/elements/1.1/"
   xmlns:cc="http://creativecommons.org/ns#"
   xmlns:rdf="http://www.w3.org/1999/02/22-rdf-syntax-ns#"
   xmlns:svg="http://www.w3.org/2000/svg"
   xmlns="http://www.w3.org/2000/svg"
   xmlns:xlink="http://www.w3.org/1999/xlink"
   xmlns:sodipodi="http://sodipodi.sourceforge.net/DTD/sodipodi-0.dtd"
   xmlns:inkscape="http://www.inkscape.org/namespaces/inkscape"
   width="64"
   height="64"
   id="svg13094"
   version="1.1"
   inkscape:version="0.48.4 r9939"
   sodipodi:docname="mpv.svg">
  <sodipodi:namedview
     id="base"
     pagecolor="#ffffff"
     bordercolor="#666666"
     borderopacity="1.0"
     inkscape:pageopacity="0"
     inkscape:pageshadow="2"
     inkscape:zoom="11.313709"
     inkscape:cx="35.277723"
     inkscape:cy="30.042344"
     inkscape:document-units="px"
     inkscape:current-layer="svg13094"
     showgrid="true"
     inkscape:snap-bbox="true"
     inkscape:bbox-paths="true"
     inkscape:bbox-nodes="true"
     inkscape:snap-bbox-edge-midpoints="true"
     inkscape:snap-bbox-midpoints="true"
     inkscape:object-paths="true"
     inkscape:snap-intersection-paths="true"
     inkscape:object-nodes="true"
     inkscape:snap-smooth-nodes="true"
     inkscape:snap-midpoints="true"
     inkscape:snap-object-midpoints="true"
     inkscape:snap-center="true"
     showguides="true"
     inkscape:guide-bbox="true"
     inkscape:window-width="1920"
     inkscape:window-height="1025"
     inkscape:window-x="-2"
     inkscape:window-y="32"
     inkscape:window-maximized="1"
     inkscape:snap-global="true"
     fit-margin-top="0"
     fit-margin-left="0"
     fit-margin-right="0"
     fit-margin-bottom="0"
     showborder="true"
     inkscape:showpageshadow="false"
     inkscape:snap-page="true">
    <inkscape:grid
       type="xygrid"
       id="grid3075"
       empspacing="5"
       visible="true"
       enabled="true"
       snapvisiblegridlinesonly="true"
       originx="1.6362304e-08px"
       originy="18px" />
  </sodipodi:namedview>
  <defs
     id="defs13096">
    <linearGradient
       id="linearGradient3800-4-5">
      <stop
         style="stop-color:#d371ff;stop-opacity:0.43762121;"
         offset="0"
         id="stop3802-0-8" />
      <stop
         id="stop3808-7-7"
         offset="0.5"
         style="stop-color:#ad3cff;stop-opacity:0.21396251;" />
      <stop
         style="stop-color:#bd4bff;stop-opacity:0.10019393;"
         offset="0.75"
         id="stop3810-8-1" />
      <stop
         style="stop-color:#c84dff;stop-opacity:0;"
         offset="1"
         id="stop3804-9-1" />
    </linearGradient>
    <radialGradient
       inkscape:collect="always"
       xlink:href="#linearGradient3800-4-5"
       id="radialGradient3457"
       gradientUnits="userSpaceOnUse"
       gradientTransform="matrix(1.5610684,1.7108879e-8,0,0.2109384,-11.770879,24.419928)"
       cx="21.427109"
       cy="39.257416"
       fx="21.427109"
       fy="39.257416"
       r="32" />
    <radialGradient
       inkscape:collect="always"
       xlink:href="#linearGradient5476-3-7-7-9-1"
       id="radialGradient5053-9-0-8"
       cx="31.788231"
       cy="32.43306"
       fx="31.788231"
       fy="32.43306"
       r="16.361454"
       gradientTransform="matrix(0.88888883,0,0,0.88533289,2.8888897,3.9540476)"
       gradientUnits="userSpaceOnUse" />
    <linearGradient
       id="linearGradient5476-3-7-7-9-1">
      <stop
         id="stop5478-3-7-7-7-4"
         offset="0"
         style="stop-color:#f2e0ff;stop-opacity:1;" />
      <stop
         id="stop5480-5-7-45-6-9"
         offset="1"
         style="stop-color:#ecd2ff;stop-opacity:0.65416938;" />
    </linearGradient>
  </defs>
  <metadata
     id="metadata13099">
    <rdf:RDF>
      <cc:Work
         rdf:about="">
        <dc:format>image/svg+xml</dc:format>
        <dc:type
           rdf:resource="http://purl.org/dc/dcmitype/StillImage" />
        <dc:title />
      </cc:Work>
    </rdf:RDF>
  </metadata>
  <path
     id="path5441"
     d="m 0,4 0,30 0,28 2,2 30,0 30,0 2,-2 L 64,34 64,4 32,4 0,4 z"
     style="color:#000000;fill:#7630ab;fill-opacity:1;fill-rule:nonzero;stroke:none;stroke-width:2.28571415000000000;marker:none;visibility:visible;display:inline;overflow:visible;enable-background:accumulate"
     inkscape:connector-curvature="0" />
  <path
     inkscape:connector-curvature="0"
     style="color:#000000;fill:#d168f7;fill-opacity:1;fill-rule:nonzero;stroke:none;stroke-width:2.28571415000000000;marker:none;visibility:visible;display:inline;overflow:visible;enable-background:accumulate"
     d="M 2,0 0,1 0,4 32,4 64,4 64,1 62,0 32,0 2,0 z"
     id="path4090" />
  <path
     style="fill:#d982f8;fill-opacity:1;fill-rule:nonzero"
     d="M 0,3 0,6 2,4 z"
     id="path4298"
     inkscape:connector-curvature="0"
     sodipodi:nodetypes="cccc" />
  <path
     d="M 64,6 62,4 64,3 z"
     id="path3028"
     style="fill:#9f4acd;fill-opacity:1"
     inkscape:connector-curvature="0" />
  <g
     id="g3043"
     inkscape:export-filename="folder.png"
     inkscape:export-xdpi="90"
     inkscape:export-ydpi="90"
     transform="translate(-0.62500009,0.082283)" />
  <g
     id="scalable"
     transform="matrix(1.0385892,0,0,1.0385892,1214.7222,1878.8121)"
     inkscape:label="#g3701"
     style="fill:#ffffff" />
  <path
     inkscape:connector-curvature="0"
     id="path3389"
     d="m 42,34 -16,-8.5 0,17 z"
     style="color:#000000;fill:#e8d6fc;fill-opacity:1;fill-rule:nonzero;stroke:none;stroke-width:0.77637476000000005;marker:none;visibility:visible;display:inline;overflow:visible;enable-background:accumulate" />
  <path
     style="font-size:medium;font-style:normal;font-variant:normal;font-weight:normal;font-stretch:normal;text-indent:0;text-align:start;text-decoration:none;line-height:normal;letter-spacing:normal;word-spacing:normal;text-transform:none;direction:ltr;block-progression:tb;writing-mode:lr-tb;text-anchor:start;baseline-shift:baseline;color:#000000;fill:#b581f1;fill-opacity:1;stroke:none;stroke-width:3.08140730999999990;marker:none;visibility:visible;display:inline;overflow:visible;enable-background:accumulate;font-family:Sans;-inkscape-font-specification:Sans"
     d="M 32,10.999147 C 19.315218,10.999147 8.9991468,21.315218 8.9991468,34 8.9991468,46.684782 19.315218,57.000853 32,57.000853 44.684782,57.000853 55.000853,46.684782 55.000853,34 55.000853,21.315218 44.684782,10.999147 32,10.999147 z m 0,3.012016 C 43.063462,14.011163 51.988837,22.936538 51.988837,34 51.988837,45.063462 43.063462,53.988837 32,53.988837 20.936538,53.988837 12.011163,45.063462 12.011163,34 12.011163,22.936538 20.936538,14.011163 32,14.011163 z"
     id="path3426"
     inkscape:connector-curvature="0" />
</svg>

<svg xmlns="http://www.w3.org/2000/svg" viewBox="0 0 64 64"><g color="#000"><path d="m0 4v30 28l2 2h30 30l2-2v-28-30h-32-32" fill="#7630ab"/><path d="m2 0l-2 1v3h32 32v-3l-2-1h-30-30" fill="#d168f7"/></g><path d="m0 3v3l2-2z" fill="#d982f8"/><path d="m64 6l-2-2 2-1z" fill="#9f4acd"/><g color="#000"><path d="m42 34l-16-8.5v17z" fill="#e8d6fc"/><path d="m32 10.999c-12.685 0-23 10.316-23 23 0 12.685 10.316 23 23 23 12.685 0 23-10.316 23-23 0-12.685-10.316-23-23-23m0 3.01c11.06 0 19.989 8.925 19.989 19.989 0 11.06-8.925 19.989-19.989 19.989-11.06 0-19.989-8.925-19.989-19.989 0-11.06 8.925-19.989 19.989-19.989" fill="#b581f1"/></g></svg>
